X: 1
T: The Golden Years
T: 8x32S 3C (RSCDS Bk 38)
P: Miss MacKenzie's Strathspey
R: Strathspey
C: Robert Mackintosh
C: RSCDS Book 38, arr. T. Traub 10-23-2014
M: 4/4
L: 1/8
K: D
|: d|"D"A<FE>F D>F D<A,|"Em"B,<EE<E "A"E>F G<B|"D"A<FE>F D>F D<A,|"G"B,<B"A"A>F "D"D/D/D D :|
f|"D"a>f a/g/f/e/ f<dd<A|"Em"B<ee<e "A"e>f g<b|"D"a>f "A"a/g/f/e/ "D"f<dd>A|"G"B<d"A"A>F "D"D/D/D D>f|
"D"a>f a/g/f/e/ f<dd<A|"Em"B<ee<e "A"e>f g<b|"D"a/g/f "A"g/f/e "Bm"f/e/d "A"e/d/c|"G"d>B"A"A>F "D"D/D/D D |]
